static/assets/images/icons/pulse.svg

<svg width="256" height="256" viewBox="0 0 256 256" fill="none" xmlns="http://www.w3.org/2000/svg">
<path d="M96.6881 46.0012C99.4058 46.0284 102.038 46.6868 104.193 47.8782C106.347 49.0697 107.907 50.7301 108.641 52.6117L154.904 170.876L179.187 124.322C179.187 124.322 181.655 121.245 183.804 120.059C186.317 118.672 190.976 118.445 190.976 118.445H221.317C227.769 118.445 233 123.671 233 130.117C233 136.563 227.769 141.789 221.317 141.789H196.975L164.98 203.122C164.048 204.91 162.355 206.44 160.141 207.494C157.928 208.548 155.308 209.072 152.655 208.992C150.003 208.912 147.453 208.231 145.371 207.047C143.289 205.862 141.781 204.235 141.061 202.398L95.882 86.8775L77.0394 130.199C77.0394 130.199 74.6567 133.506 72.4814 134.794C69.907 136.319 65.0235 136.556 65.0235 136.556H35.2128C28.4679 136.556 23 131.093 23 124.354C23 117.615 28.4679 112.153 35.2128 112.153H58.5002L84.4833 52.3581C85.2936 50.4911 86.9229 48.8629 89.1274 47.717C91.332 46.5711 93.9933 45.9692 96.7133 46.0012H96.6881Z" fill="black"/>
</svg>

<svg xmlns="http://www.w3.org/2000/svg" fill="none" viewBox="0 0 256 256"><path fill="#000" d="M96.688 46.001c2.718.027 5.35.686 7.505 1.877 2.154 1.192 3.714 2.852 4.448 4.734l46.263 118.264 24.283-46.554s2.468-3.077 4.617-4.263c2.513-1.387 7.172-1.614 7.172-1.614h30.341c6.452 0 11.683 5.226 11.683 11.672s-5.231 11.672-11.683 11.672h-24.342l-31.995 61.333c-.932 1.788-2.625 3.318-4.839 4.372-2.213 1.054-4.833 1.578-7.486 1.498s-5.202-.761-7.284-1.945-3.59-2.812-4.31-4.649L95.882 86.878l-18.843 43.321s-2.382 3.307-4.558 4.595c-2.574 1.525-7.457 1.762-7.457 1.762H35.213c-6.745 0-12.213-5.463-12.213-12.202s5.468-12.201 12.213-12.201H58.5l25.983-59.795c.81-1.867 2.44-3.495 4.644-4.641s4.866-1.748 7.586-1.716z"/></svg>
